X: 21285
T: Kelly's
R: hornpipe
M: 4/4
K: Dmajor
dcdA FGAF|BGBGE2EF|GFGE CDEC|DEFGA2Bc|
dcdA FGAF|BGBGE2EF|GFGE CDEC|D2F2D2z2:|
FAde fedc|BGBd gfed|cAce afge|fcdBA2BA|
FAde fedc|BGBd GFED|CDEF GABc|d2dcd2z2:|

